X:1
T:Title
%%score ( 1 2 ) { 3 | 4 }
L:1/8
Q:1/4=110
M:4/4
K:Eb
V:1 treble nm="Grand Piano, Unnamed-000"
V:2 treble 
V:3 bass nm="Choir Pad, Austria (Haydn), 87.87 D"
V:4 bass 
V:1
 [B,E]3 [B,F] [EG]2 [DF]2 | [FA]2 [EG]2 [DF]D [B,E]2 | c2 z2 z4 | [CF]2 [EG]E [DB]4 | %4
w: By~Franz~Josef~Haydn,~1797 * * *||||
 [B,E]3 [B,F] [EG]2 [DF]2 | [FA]2 [EG]2 [DF]D [B,E]2 | c2 z2 z4 | [CF]2 [EG]E [DB]4 | z4 .F2 z2 | %9
w: |||||
 A2 z2 z4 | z2 A2 z4 | [E=A]3 [EA] [DB]4 | [Ee]3 [Ed] dc [EB]2 | [Ec]3 [EB] BA [EG]2 | %14
w: |||||
 [DF]2 GA BcAF | [B,E]2 GF E4- | E4 z4 |] %17
w: |||
V:2
 x8 | x8 | CD [EB]2 [FA]2 [EG]2 | x8 | x8 | x8 | CD [EB]2 [FA]2 [EG]2 | x8 | %8
 [B,F]2 [B,G]2 B,-[B,D] B,2 | CD [EG]2 [DF][B,D] B,2 | [B,B]2 CD [EG]3 [EG] | x8 | z4 E2 z2 | %13
 z4 D2 z2 | z2 D2 E2 C2 | z2 D2 z4 | x8 |] %17
V:3
 G,3 A, B,2 B,2 | B,2 B,2 A,2 G,2 | A,2 B,2 B,2 B,2 | A,2 C2 F,4 | G,3 A, B,2 B,2 | %5
 B,2 B,2 A,2 G,2 | A,2 B,2 B,2 B,2 | A,2 C2 F,4 | D,2 E,2 D,F,A,G, | F,2 E,G, B,F, D,2 | %10
 G,2 F,2 E,3 C | C3 F, F,4 | C3 B, A,2 G,2 | A,3 B, B,2 B,2 | B,2 B,2 B,E,CA, | G,2 A,2 G,4- | %16
 G,4 z4 |] %17
V:4
 E,3 E, E,2 B,,2 | D,2 E,2 B,,2 E,2 | z2 G,2 D,2 E,2 | A,,2 =A,,2 B,,4 | E,3 E, E,2 B,,2 | %5
 D,2 E,2 B,,2 E,2 | z2 G,2 D,2 E,2 | A,,2 =A,,2 B,,4 | B,,2 B,,2 B,,2 B,,2 | %9
 B,,2 B,,2 B,,2 B,,A,, | G,,2 A,,B,, C,3 C, | F,3 F,, B,,4 | G,3 G, z2 E,2 | z2 z G, F,2 E,2 | %14
 B,,2 A,,2 G,,2 A,,2 | B,,2 B,,2 [E,,E,]4- | [E,,E,]4 z4 |] %17

